img/wifi-problem.svg

<?xml version="1.0" encoding="UTF-8" standalone="no"?>
<!-- Uploaded to: SVG Repo, www.svgrepo.com, Generator: SVG Repo Mixer Tools -->

<svg
   width="800px"
   height="800px"
   viewBox="0 0 24 24"
   fill="none"
   version="1.1"
   id="svg4"
   sodipodi:docname="wifi-problem.svg"
   inkscape:version="1.2.1 (9c6d41e410, 2022-07-14)"
   xmlns:inkscape="http://www.inkscape.org/namespaces/inkscape"
   xmlns:sodipodi="http://sodipodi.sourceforge.net/DTD/sodipodi-0.dtd"
   xmlns="http://www.w3.org/2000/svg"
   xmlns:svg="http://www.w3.org/2000/svg">
  <defs
     id="defs8" />
  <sodipodi:namedview
     id="namedview6"
     pagecolor="#ffffff"
     bordercolor="#000000"
     borderopacity="0.25"
     inkscape:showpageshadow="2"
     inkscape:pageopacity="0.0"
     inkscape:pagecheckerboard="0"
     inkscape:deskcolor="#d1d1d1"
     showgrid="false"
     inkscape:zoom="1.0325"
     inkscape:cx="298.78935"
     inkscape:cy="400.48426"
     inkscape:window-width="1920"
     inkscape:window-height="1013"
     inkscape:window-x="-9"
     inkscape:window-y="-9"
     inkscape:window-maximized="1"
     inkscape:current-layer="svg4" />
  <g
     id="System / Wifi_Problem">
    <path
       id="Vector"
       d="m 8.34277,14.5898 c 0.46584,-0.4996 1.0291,-0.8984 1.65503,-1.1718 0.6259,-0.2735 1.3017,-0.4156 1.9848,-0.418 0.683,-0.0024 1.3593,0.1353 1.9871,0.4044 0.6278,0.269 1.194,0.6638 1.6633,1.1601 M 6.14941,11.5439 C 6.89312,10.7464 7.79203,10.1093 8.79091,9.67188 9.7898,9.23441 10.8678,9.00575 11.9583,9 M 3.22363,8.81649 C 4.34177,7.61743 5.69376,6.66021 7.19618,6.00391 8.69859,5.3476 10.3198,5.00558 11.9593,5 M 16,8.99997 18,6.99998 m 0,0 L 20,5 m -2,1.99998 2,1.99999 M 12,19 c -0.5523,0 -1,-0.4477 -1,-1 0,-0.5523 0.4477,-1 1,-1 0.5523,0 1,0.4477 1,1 0,0.5523 -0.4477,1 -1,1 z M 18,6.99998 16,5 20,8.99997"
       stroke="#000000"
       stroke-width="2"
       stroke-linecap="round"
       stroke-linejoin="round"
       style="stroke:#ffffff;stroke-opacity:1" />
  </g>
  <path
     style="fill:none;stroke:#ff0000;stroke-width:2.1;stroke-linecap:round;stroke-dasharray:none;stroke-opacity:1"
     d="M 15.980629,5.0247459 20.048426,9.034431"
     id="path1067" />
  <path
     style="fill:none;stroke:#ff0000;stroke-width:2.1;stroke-linecap:round;stroke-dasharray:none;stroke-opacity:1"
     d="M 20.075157,4.996997 16.065472,9.064794"
     id="path1067-6" />
</svg>

<?xml version="1.0" encoding="utf-8"?>
<!-- Uploaded to: SVG Repo, www.svgrepo.com, Generator: SVG Repo Mixer Tools -->
<svg width="800px" height="800px" viewBox="0 0 24 24" fill="none" xmlns="http://www.w3.org/2000/svg">
<g id="System / Wifi_Problem">
<path id="Vector" d="M8.34277 14.5898C8.80861 14.0902 9.37187 13.6914 9.9978 13.418C10.6237 13.1445 11.2995 13.0024 11.9826 13C12.6656 12.9976 13.3419 13.1353 13.9697 13.4044C14.5975 13.6734 15.1637 14.0682 15.633 14.5645M6.14941 11.5439C6.89312 10.7464 7.79203 10.1093 8.79091 9.67188C9.7898 9.23441 10.8678 9.00575 11.9583 9M3.22363 8.81649C4.34177 7.61743 5.69376 6.66021 7.19618 6.00391C8.69859 5.3476 10.3198 5.00558 11.9593 5M16 8.99997L18 6.99998M18 6.99998L20 5M18 6.99998L16 5M18 6.99998L20 8.99997M12 19C11.4477 19 11 18.5523 11 18C11 17.4477 11.4477 17 12 17C12.5523 17 13 17.4477 13 18C13 18.5523 12.5523 19 12 19Z" stroke="#000000" stroke-width="2" stroke-linecap="round" stroke-linejoin="round"/>
</g>
</svg>
